assets/svg/icon-ui-links-white.svg

<?xml version="1.0" encoding="UTF-8" standalone="no"?>
<svg width="37px" height="32px" viewBox="0 0 37 32" version="1.1" xmlns="http://www.w3.org/2000/svg" xmlns:xlink="http://www.w3.org/1999/xlink">
    <!-- Generator: Sketch 3.8.3 (29802) - http://www.bohemiancoding.com/sketch -->
    <title>white/icon-ui-links-white</title>
    <desc>Created with Sketch.</desc>
    <defs></defs>
    <g id="white" stroke="none" stroke-width="1" fill="none" fill-rule="evenodd">
        <g id="icons,-utility-white" transform="translate(-103.000000, -633.000000)" fill="#FFFFFF">
            <g id="white/icon-ui-links-white" transform="translate(103.000000, 633.000000)">
                <g id="icon-links">
                    <g id="Page-1">
                        <path d="M36.0274152,18.1304348 C35.9837505,18.1304348 35.9837505,18.0869565 35.9837505,18.0869565 C35.6344328,17.4347827 35.1977856,16.8695652 34.7174737,16.3913044 L27.8621131,9.56521739 C27.8184484,9.52173913 27.7747836,9.47826087 27.7747836,9.47826087 C26.9014893,8.65217391 25.853536,8 24.6745887,7.65217391 C26.0281949,9.04347827 26.9014893,10.7826087 27.2508071,12.6956522 C27.3381364,13.2608696 27.3818012,13.8695652 27.3818012,14.4347827 C27.3818012,14.6521739 27.3818012,14.9130435 27.3381364,15.1739131 L31.6172788,19.4347827 C32.0102612,19.7826087 32.2722495,20.2608696 32.4032436,20.7826087 C32.4905731,21.0869565 32.5342379,21.3913044 32.5342379,21.6956521 C32.5342379,22.0434783 32.4905731,22.3913044 32.4032436,22.6956521 C32.2285848,23.1739131 31.9665965,23.6086956 31.6172788,23.9565217 L28.8227368,26.7391304 C28.2550955,27.3478261 27.4254659,27.6521739 26.5521716,27.6521739 C25.6788772,27.6521739 24.8929123,27.3478261 24.2816063,26.7391304 L21.6617232,24.0869565 L19.9151345,22.3913044 L17.4262456,19.9130435 C17.207922,19.6521739 16.9895984,19.3913044 16.8149396,19.0434783 C16.6402807,18.6086956 16.5092865,18.1304348 16.5092865,17.6521739 C16.5092865,17.3043479 16.5529513,17 16.6839455,16.6956521 L16.6839455,16.6086956 L16.7276101,16.5652173 C16.7712748,16.4347827 16.7712748,16.3478261 16.8149396,16.2608696 C16.8586043,16.2173913 16.8586043,16.1739131 16.9022691,16.1304348 C16.9459337,16.0434783 16.9895984,15.9565217 17.0769279,15.8695652 L17.0769279,15.8260869 C17.1205925,15.7826087 17.1205925,15.7391304 17.1205925,15.7391304 C17.2515868,15.6086956 17.3389161,15.4782609 17.4262456,15.3913044 L18.5178636,14.3043479 C18.4741988,14.2173913 18.4741988,14.0869565 18.4305341,14 C18.3868693,13.9130435 18.29954,13.8260869 18.2558752,13.7391304 L15.7669864,11.3043478 L15.5923275,11.0869565 L14.3697153,12.3043478 C14.2387212,12.4347826 14.1513919,12.5652174 14.0203976,12.6956522 C13.9767329,12.7391304 13.9767329,12.7391304 13.9330683,12.7826087 L13.9330683,12.826087 C13.8457388,12.9130435 13.7584093,13.0434783 13.6710799,13.1304348 C13.6274152,13.173913 13.6274152,13.2173913 13.5837505,13.2173913 L13.5837505,13.2608696 C13.4964211,13.3478261 13.4527564,13.4782609 13.3654269,13.5652173 L13.3217622,13.6086956 C13.3217622,13.6086956 13.3217622,13.6521739 13.2780975,13.6956521 C13.190768,13.8260869 13.1471033,13.9565217 13.0597739,14.0869565 L13.0597739,14.1304348 C12.7977856,14.6086956 12.579462,15.0869565 12.4484678,15.6086956 C12.4048031,15.7826087 12.3611384,15.9565217 12.3174737,16.1304348 C12.2301443,16.6521739 12.1864795,17.1304348 12.1864795,17.6521739 C12.1864795,18.0869565 12.2301443,18.5652173 12.273809,19 C12.579462,20.5217391 13.2780975,21.8695652 14.3697153,22.9565217 L15.8106511,24.3913044 L17.8628928,26.4782609 L21.225076,29.7826087 C24.1506121,32.7391304 28.9537309,32.7391304 31.9229317,29.7826087 L34.7174737,27.0434783 C35.6344328,26.0869565 36.3330683,24.8695652 36.682386,23.5652173 C36.8133801,22.9130435 36.9007096,22.3043479 36.9007096,21.6956521 C36.9007096,20.5217391 36.6387212,19.3043479 36.0710799,18.2608696 L36.0710799,18.2173913 C36.0710799,18.2173913 36.0710799,18.2173913 36.0274152,18.1739131 C36.0274152,18.1739131 36.0274152,18.1739131 36.0274152,18.1304348 L36.0274152,18.1304348 L36.0274152,18.1304348 Z M23.0589941,9.04347827 L21.6180585,7.60869565 L19.5658168,5.52173913 L16.2036335,2.21739131 C13.2780975,-0.739130435 8.47497856,-0.739130435 5.50577777,2.21739131 L2.71123587,4.95652173 C1.7942768,5.91304348 1.09564133,7.13043479 0.746323587,8.43478261 C0.615329435,9.08695652 0.528,9.69565217 0.528,10.3043478 C0.528,11.4782609 0.833653021,12.6956522 1.35762963,13.7391304 L1.35762963,13.7826087 C1.35762963,13.7826087 1.40129435,13.7826087 1.40129435,13.8260869 C1.40129435,13.8260869 1.40129435,13.8260869 1.40129435,13.8695652 C1.44495907,13.8695652 1.44495907,13.9130435 1.44495907,13.9130435 C1.7942768,14.5652173 2.23092397,15.1304348 2.71123587,15.6086956 L9.56659649,22.4347827 C9.61026121,22.4782609 9.65392592,22.5217391 9.65392592,22.5217391 C10.5272203,23.3478261 11.6188382,24 12.7541209,24.3478261 C11.4441793,22.9565217 10.5272203,21.2173913 10.2215673,19.3043479 C10.0905731,18.7391304 10.0469084,18.1304348 10.0469084,17.5652173 C10.0469084,17.3478261 10.0469084,17.0869565 10.0905731,16.8260869 L5.8114308,12.5652174 C5.41844835,12.2173913 5.15646004,11.7391304 5.02546589,11.2173913 C4.93813645,10.9130435 4.89447173,10.6086957 4.89447173,10.3043478 C4.89447173,9.95652173 4.93813645,9.60869565 5.02546589,9.30434783 C5.20012476,8.82608696 5.46211307,8.39130435 5.8114308,8.04347827 L8.60597271,5.26086956 C9.8285848,4.04347827 11.9244912,4.04347827 13.1471033,5.26086956 L15.8106511,7.91304348 L17.5135751,9.60869565 L20.002464,12.0869565 C20.2207875,12.3478261 20.4391111,12.6086957 20.61377,12.9565217 C20.7884288,13.3913044 20.9194231,13.8695652 20.9194231,14.3478261 C20.9194231,14.6956521 20.8757583,15 20.7884288,15.3043479 C20.7447641,15.3478261 20.7447641,15.3478261 20.7447641,15.3913044 L20.7447641,15.4347827 C20.7010995,15.5652173 20.6574347,15.6521739 20.61377,15.7391304 C20.5701052,15.7826087 20.5701052,15.8260869 20.5264405,15.8695652 C20.4827759,15.9565217 20.4391111,16.0434783 20.3517817,16.1304348 L20.3517817,16.1739131 C20.3517817,16.2173913 20.3081169,16.2173913 20.3081169,16.2608696 C20.1771228,16.3913044 20.0897933,16.5217391 20.002464,16.6086956 L18.910846,17.6956521 C18.9545107,17.7826087 18.9545107,17.9130435 18.9981755,18 C19.0418401,18.0869565 19.1291696,18.1739131 19.1728343,18.2608696 L21.6617232,20.6956521 L21.836382,20.9130435 L23.0589941,19.6956521 C23.1899883,19.5652173 23.3209824,19.4347827 23.4083119,19.3043479 C23.4519767,19.2608696 23.4519767,19.2608696 23.4956413,19.2173913 L23.539306,19.1739131 C23.5829708,19.0869565 23.6703001,18.9565217 23.7576296,18.8695652 C23.8012944,18.8260869 23.8012944,18.7826087 23.8449591,18.7391304 C23.9322885,18.6521739 24.019618,18.5217391 24.0632827,18.4347827 L24.1069473,18.3913044 L24.1506121,18.3043479 C24.2379415,18.1739131 24.2816063,18.0434783 24.3689357,17.9130435 L24.4126004,17.8695652 C24.630924,17.3913044 24.8492476,16.9130435 24.9802417,16.3913044 C25.0239064,16.2173913 25.0675712,16.0434783 25.1112359,15.8695652 C25.1985653,15.3478261 25.2858948,14.8695652 25.2858948,14.3478261 C25.2858948,13.9130435 25.24223,13.4347827 25.1549005,13 C24.8929123,11.4782609 24.1506121,10.1304348 23.0589941,9.04347827 L23.0589941,9.04347827 L23.0589941,9.04347827 Z" id="icon-links"></path>
                    </g>
                </g>
            </g>
        </g>
    </g>
</svg>

<svg width="37" height="32" viewBox="0 0 37 32" xmlns="http://www.w3.org/2000/svg"><title>white/icon-ui-links-white</title><path d="M36.027 18.13c-.043 0-.043-.043-.043-.043a7.178 7.178 0 0 0-1.267-1.696l-6.855-6.826-.087-.087c-.874-.826-1.921-1.478-3.1-1.826 1.353 1.391 2.226 3.13 2.576 5.044.087.565.13 1.174.13 1.739 0 .217 0 .478-.043.739l4.28 4.26c.392.349.654.827.785 1.349.088.304.131.608.131.913 0 .347-.043.695-.13 1a3.428 3.428 0 0 1-.787 1.26l-2.794 2.783c-.568.609-1.398.913-2.27.913-.874 0-1.66-.304-2.271-.913l-2.62-2.652-1.747-1.696-2.489-2.478c-.218-.26-.436-.522-.611-.87-.175-.434-.306-.913-.306-1.39 0-.349.044-.653.175-.957v-.087l.044-.044c.043-.13.043-.217.087-.304.044-.044.044-.087.087-.13a.91.91 0 0 1 .175-.261v-.044c.044-.043.044-.087.044-.087.13-.13.218-.26.305-.348l1.092-1.087c-.044-.087-.044-.217-.087-.304-.044-.087-.131-.174-.175-.26l-2.489-2.436-.175-.217-1.222 1.217c-.131.13-.219.261-.35.392l-.087.087v.043c-.087.087-.175.217-.262.304-.044.044-.044.087-.087.087v.044c-.088.087-.131.217-.219.304l-.043.044s0 .043-.044.087c-.087.13-.13.26-.218.391v.043c-.262.479-.48.957-.612 1.479l-.13.521c-.088.522-.132 1-.132 1.522 0 .435.044.913.088 1.348.305 1.522 1.004 2.87 2.096 3.957l1.44 1.434 2.053 2.087 3.362 3.305c2.926 2.956 7.729 2.956 10.698 0l2.794-2.74a8.12 8.12 0 0 0 1.965-3.478c.131-.652.219-1.26.219-1.87 0-1.173-.262-2.39-.83-3.434v-.044l-.044-.043v-.044zM23.06 9.043l-1.44-1.434-2.053-2.087-3.362-3.305c-2.926-2.956-7.729-2.956-10.698 0L2.71 4.957A8.12 8.12 0 0 0 .746 8.435c-.13.652-.218 1.26-.218 1.87a7.81 7.81 0 0 0 .83 3.434v.044s.043 0 .043.043v.044c.044 0 .044.043.044.043.35.652.786 1.217 1.266 1.696l6.856 6.826.087.087a8.02 8.02 0 0 0 3.1 1.826c-1.31-1.391-2.227-3.13-2.532-5.044a7.837 7.837 0 0 1-.175-1.739c0-.217 0-.478.044-.739l-4.28-4.26c-.393-.349-.655-.827-.786-1.349a3.297 3.297 0 0 1-.13-.913c0-.347.043-.695.13-1 .175-.478.437-.913.786-1.26L8.606 5.26c1.223-1.218 3.318-1.218 4.541 0l2.664 2.652 1.703 1.696 2.488 2.478c.219.26.437.522.612.87.174.434.305.913.305 1.39 0 .349-.043.653-.13.957-.044.044-.044.044-.044.087v.044c-.044.13-.088.217-.131.304-.044.044-.044.087-.088.13a.91.91 0 0 1-.174.261v.044c0 .043-.044.043-.044.087-.13.13-.218.26-.306.348l-1.091 1.087c.044.087.044.217.087.304.044.087.131.174.175.26l2.489 2.436.174.217 1.223-1.217c.131-.13.262-.261.35-.392l.087-.087.043-.043c.044-.087.131-.217.219-.304.043-.044.043-.087.087-.13.087-.088.175-.218.218-.305l.044-.044.044-.087c.087-.13.13-.26.218-.391l.044-.043c.218-.479.436-.957.567-1.479l.131-.521c.088-.522.175-1 .175-1.522 0-.435-.044-.913-.131-1.348-.262-1.522-1.004-2.87-2.096-3.957z" fill="#FFF" fill-rule="evenodd"/></svg>
